X: 7400
T: Clog De Champagne
R: barndance
M: 4/4
K: Gmajor
(3d^cd g>e d>BB>G|A>Bc>A E2 A>G|F>dc>A E>cA>F|(3GBA (3GFE D2 B>c|
(3d^cd g>e d>BB>G|A>Bc>A E2 A>G|F>dc>A E>cA>D|G2 B2 G2:|
G>FG>B A>GE>D|G>FG>B d2 (3BdB|A>dc>A F>dc>A|G>FG>B d2 (3DEF|
G>FG>B A>GE>A|G>FG>B d2 (3BdB|A>Bc>A F>DE>F|G2 B2 G2:|
(3d^cd ge dBBG|ABcA E2 AG|FdcA EcAF|(3GBA (3GFE D2 Bc|
(3d^cd ge dBBG|ABcA E2 AG|FdcA EcAD|G2 B2 G2:|
GFGB AGED|GFGB d2 (3BdB|AdcA FdcA|GFGB d2 (3DEF|
GFGB AGEA|GFGB d2 (3BdB|ABcA FDEF|G2 B2 G2:|

